X: 3186
T: SIR RONALD Mc DONALD
Q: "Reel."
R: Reel.
%R: reel
B: James Kerr "Merry Melodies" v.3 p.22 #186
Z: 2016 John Chambers <jc:trillian.mit.edu>
M: C
L: 1/8
K: Gm
uB |\
G/G/G (dc) d3g | fdcA FGAF |\
G/G/G (dc) d3g | fdcA G/G/G G ::\
f |\
gfga d^fga |
=fdcA FcAf |\
[1 gfga d^fga fdcA G/G/G G :|\
[2 gafg dfcf | AfcA G/G/G G |]

%%sep 1 1 500
%%sep 1 1 500

